projects/oblique/icons/Save.svg

<?xml version="1.0" encoding="UTF-8"?><svg id="a" xmlns="http://www.w3.org/2000/svg" viewBox="0 0 24 24"><path d="M17.84445,2.24984H2.24973v19.5h19.5V6.88656l-3.90527-4.63672ZM6.74973,3.74984h7.31055v4.22559h-7.31055V3.74984ZM20.24973,20.24984H3.74973V3.74984h1.5v5.72559h10.31055V3.74984h1.58691l3.10254,3.68359v12.81641ZM11.3743,4.18636h1.93561v3.35303h-1.93561v-3.35303ZM11.99973,11.69124c-1.74805,0-3.1709,1.42285-3.1709,3.17188,0,1.74805,1.42285,3.1709,3.1709,3.1709s3.1709-1.42285,3.1709-3.1709c0-1.74902-1.42285-3.17188-3.1709-3.17188ZM11.99973,16.53402c-.9209,0-1.6709-.75-1.6709-1.6709,0-.92188.75-1.67188,1.6709-1.67188s1.6709.75,1.6709,1.67188c0,.9209-.75,1.6709-1.6709,1.6709Z"/></svg>

<svg xmlns="http://www.w3.org/2000/svg" viewBox="0 0 24 24"><title>Save</title><path d="M17.84445,2.24984H2.24973v19.5h19.5V6.88656Zm-11.09472,1.5h7.31054V7.97542H6.74973Zm13.5,16.5h-16.5v-16.5h1.5V9.47542H15.56027V3.74984h1.58692l3.10254,3.68359Z" fill="#171717"/><rect x="11.3743" y="4.18636" width="1.93561" height="3.35303" fill="#171717"/><path d="M11.99973,11.69124a3.17139,3.17139,0,1,0,3.17089,3.17188A3.17521,3.17521,0,0,0,11.99973,11.69124Zm0,4.84278a1.67139,1.67139,0,1,1,1.67089-1.6709A1.67335,1.67335,0,0,1,11.99973,16.534Z" fill="#171717"/></svg>
